!!!OTL: Dix
!!!COL: Hymnal 1982
**kern	**text	**text	**text	**text	**text	**text
*clefG2	*	*	*	*	*	*
*k[f#]	*	*	*	*	*	*
*M4/4	*	*	*	*	*	*
*G:	*	*	*	*	*	*
=1	.	.	.	.	.	.
4g	1.One	2.What	3.How	4.Why	5.Did	6.Cat
8f#L	is	did	did	is	you	did
8gJ	.	you	she	this	know	not
4a	good	do	see	so	that	sing
4g	but	to	that	on	this	a
=2	.	.	.	.	.	.
4cc	so	me	cat	fire	is	song
4cc	.	.	.	.	.	.
2b;	.	.	.	.	.	.
=3	.	.	.	.	.	.
4e	.	.	.	.	.	.
4f#	.	.	.	.	.	.
4g	.	.	.	.	.	.
4e	.	.	.	.	.	.
=4	.	.	.	.	.	.
4d	.	.	.	.	.	.
4d	.	.	.	.	.	.
2d;	.	.	.	.	.	.
=5	.	.	.	.	.	.
4b	.	.	.	.	.	.
4a	.	.	.	.	.	.
4g	.	.	.	.	.	.
4b	.	.	.	.	.	.
=6	.	.	.	.	.	.
4.dd	.	.	.	.	.	.
8cc	.	.	.	.	.	.
2b;	.	.	.	.	.	.
=7	.	.	.	.	.	.
4e	.	.	.	.	.	.
4f#	.	.	.	.	.	.
4g	.	.	.	.	.	.
4cc	.	.	.	.	.	.
=8	.	.	.	.	.	.
4b	.	.	.	.	.	.
4a	.	.	.	.	.	.
2g;	.	.	.	.	.	.
==	.	.	.	.	.	.
*-	*-	*-	*-	*-	*-	*-
